X: 5
T: Sl\ojfen
T: Korsfiretur
R: shottish
N: Sl\ojfen and Korsfiretur are set dances that differ in the last figure.
S: printed MS of unknown origin, with dance description in Danish
O: Danmark
Q: 1/2=84
M: 2/4
L: 1/8
K: D
A \
| "D"d>A A>A | A>F A>d | "G"c>B B>B | "Em"B2 e>d \
| "A7"c>c c>c c>A B>c |1,3 "D"d2 "A7"e2 | "D"f2 z :|2,4 "D"d2 f2 | "D"d2 z :|
|: e \
| "A7"e>f e>d | c>B A>c | "D"d2 "A7"e2 | "D"f4 \
| "Em"g>g f>e | "A7"d>d c>d | "(D)"f2 "A7"e2 | "D"d2 z :|
